mobile/assets/icons/svgs/custom/boutique-dark.svg

<svg fill="none" height="500" viewBox="0 0 500 500" width="500" xmlns="http://www.w3.org/2000/svg"><path d="m224.73 405.73v-80.26c.001-4.446-.873-8.849-2.574-12.957-1.7-4.108-4.193-7.841-7.337-10.985-3.143-3.144-6.875-5.639-10.983-7.34-4.107-1.702-8.51-2.578-12.956-2.578-4.448-.003-8.853.871-12.964 2.572-4.11 1.7-7.845 4.194-10.992 7.338-3.146 3.145-5.642 6.878-7.345 10.988-1.703 4.109-2.579 8.514-2.579 12.962v80.26z" fill="#daa900"/><path d="m287.29 273.67c-23.61 0-42.82-14.56-42.82-32.46.06-1.396.657-2.715 1.666-3.681 1.009-.967 2.352-1.506 3.749-1.506s2.74.539 3.749 1.506c1.009.966 1.606 2.285 1.666 3.681 0 11.73 14.65 21.63 32 21.63s32-9.9 32-21.63c.06-1.396.657-2.715 1.666-3.681 1.009-.967 2.352-1.506 3.749-1.506s2.74.539 3.749 1.506c1.009.966 1.606 2.285 1.666 3.681-.02 17.9-19.23 32.46-42.84 32.46z" fill="#fff"/><path d="m362.09 273.65c-23.61 0-42.83-14.55-42.83-32.43v-20.31c-.001-.711.138-1.416.409-2.073.271-.658.67-1.256 1.172-1.759.503-.503 1.099-.903 1.756-1.175.657-.273 1.362-.413 2.073-.413h75.07c.716.001 1.426.144 2.087.421.66.277 1.26.681 1.764 1.191.504.509.902 1.113 1.171 1.777s.405 1.375.398 2.091l-.23 20.31c0 13.2-10.42 25-26.56 30-5.28 1.59-10.766 2.389-16.28 2.37zm-32-47.33v14.9c0 11.91 14.36 21.6 32 21.6 4.444.003 8.865-.647 13.12-1.93 11.47-3.54 18.89-11.26 18.89-19.67l.16-14.9z" fill="#fff"/><path d="m212.46 273.66c-24 0-42.78-14.25-42.78-32.44.06-1.396.657-2.715 1.666-3.681 1.009-.967 2.352-1.506 3.749-1.506s2.74.539 3.749 1.506c1.009.966 1.606 2.285 1.666 3.681 0 11.91 14.34 21.6 32 21.6 17.35 0 32-9.89 32-21.6l.35-20.4c.073-1.42.683-2.759 1.706-3.747 1.023-.987 2.382-1.55 3.804-1.573 1.436.026 2.802.621 3.8 1.654.997 1.033 1.544 2.42 1.52 3.856l-.35 20.31c-.04 17.79-19.26 32.34-42.88 32.34z" fill="#fff"/><path d="m137.68 273.65c-5.28.019-10.535-.729-15.6-2.22-16.53-4.82-27.2399-16.69-27.2399-30.21v-.1l.4-20.32c.0288-1.418.6125-2.769 1.6258-3.762 1.0134-.992 2.3756-1.548 3.7941-1.548h74.44c.711 0 1.416.14 2.073.413.657.272 1.254.672 1.756 1.175.503.503.901 1.101 1.172 1.759.271.657.41 1.362.409 2.073v20.31c0 17.88-19.21 32.43-42.83 32.43zm-32-32.38c0 8.57 7.67 16.32 19.48 19.77 4.07 1.192 8.29 1.792 12.53 1.78 17.65 0 32-9.69 32-21.6v-14.9h-63.69z" fill="#fff"/><path d="m376.78 226.31h-253.15c-1.396-.06-2.715-.657-3.681-1.666-.967-1.009-1.506-2.352-1.506-3.749s.539-2.74 1.506-3.749c.966-1.009 2.285-1.606 3.681-1.666h253.15c1.396.06 2.715.657 3.681 1.666.967 1.009 1.506 2.352 1.506 3.749s-.539 2.74-1.506 3.749c-.966 1.009-2.285 1.606-3.681 1.666z" fill="#000"/><g fill="#fff"><path d="m376.78 411.17h-253.15c-.71 0-1.414-.14-2.07-.412-.657-.272-1.253-.67-1.755-1.173-.503-.502-.901-1.098-1.173-1.755-.272-.656-.412-1.36-.412-2.07v-139.5c-.031-.731.085-1.46.343-2.145.258-.684.652-1.309 1.158-1.837s1.114-.948 1.786-1.236c.673-.287 1.397-.435 2.128-.435s1.455.148 2.128.435c.673.288 1.28.708 1.786 1.236s.9 1.153 1.158 1.837c.258.685.374 1.414.343 2.145v134.08h242.31v-134.25c-.031-.731.085-1.46.343-2.145.258-.684.652-1.309 1.158-1.837s1.114-.949 1.786-1.236c.673-.287 1.397-.435 2.128-.435s1.455.148 2.128.435 1.28.708 1.786 1.236.9 1.153 1.158 1.837c.258.685.375 1.414.343 2.145v139.67c0 .71-.14 1.414-.412 2.07-.272.657-.67 1.253-1.172 1.755-.503.503-1.099.901-1.756 1.173-.656.272-1.359.412-2.07.412z"/><path d="m399.74 226.32h-299.08c-.897.006-1.7815-.211-2.5735-.632-.7921-.421-1.4667-1.033-1.9629-1.781-.4962-.747-.7985-1.606-.8794-2.5-.0809-.893.062-1.793.4159-2.617l28.3399-66.56c4.53-10.68 13.79-17.3 24.15-17.3h43.63c1.396.06 2.715.657 3.681 1.666.967 1.009 1.506 2.352 1.506 3.749s-.539 2.74-1.506 3.749c-.966 1.009-2.285 1.606-3.681 1.666h-43.65c-5.94 0-11.38 4.1-14.19 10.71l-25.09 59h282.66l-25.51-59.1c-2.82-6.54-8.24-10.61-14.15-10.61h-44.55c-.731.031-1.46-.085-2.144-.343-.685-.258-1.31-.652-1.838-1.158s-.948-1.114-1.236-1.786c-.287-.673-.435-1.397-.435-2.128s.148-1.455.435-2.128c.288-.672.708-1.28 1.236-1.786s1.153-.9 1.838-1.158c.684-.258 1.413-.374 2.144-.343h44.59c10.3 0 19.53 6.57 24.09 17.15l28.73 66.69c.356.825.5 1.726.42 2.622-.08.895-.382 1.756-.878 2.505-.496.75-1.171 1.363-1.964 1.786s-1.679.642-2.578.637z"/><path d="m249.53 203.52c-16.752-.019-32.812-6.681-44.658-18.525s-18.511-27.903-18.532-44.655c.06-1.396.657-2.715 1.666-3.681 1.009-.967 2.352-1.506 3.749-1.506s2.74.539 3.749 1.506c1.009.966 1.606 2.285 1.666 3.681.19 13.76 5.79 26.892 15.588 36.555 9.797 9.664 23.006 15.081 36.767 15.081s26.97-5.417 36.767-15.081c9.798-9.663 15.398-22.795 15.588-36.555.06-1.396.657-2.715 1.666-3.681 1.009-.967 2.352-1.506 3.749-1.506s2.74.539 3.749 1.506c1.009.966 1.606 2.285 1.666 3.681-.018 16.751-6.681 32.81-18.525 44.655-11.845 11.844-27.904 18.506-44.655 18.525z"/><path d="m352.79 385.86h-97.21c-1.438 0-2.816-.571-3.833-1.587-1.016-1.017-1.587-2.396-1.587-3.833v-88.82c0-1.437.571-2.816 1.587-3.833 1.017-1.016 2.395-1.587 3.833-1.587h97.21c.711 0 1.416.14 2.073.413.657.272 1.253.672 1.756 1.175.502.504.901 1.101 1.172 1.759.271.657.41 1.362.409 2.073v88.82c0 1.436-.57 2.813-1.584 3.829s-2.39 1.588-3.826 1.591zm-91.79-10.86h86.38v-78h-86.38z"/><path d="m352.79 341.44h-97.21c-.731.031-1.46-.085-2.145-.343-.684-.258-1.309-.652-1.837-1.158s-.948-1.114-1.236-1.786c-.287-.673-.435-1.397-.435-2.128s.148-1.455.435-2.128c.288-.672.708-1.28 1.236-1.786s1.153-.9 1.837-1.158c.685-.258 1.414-.374 2.145-.343h97.21c1.396.06 2.715.657 3.681 1.666.967 1.009 1.506 2.352 1.506 3.749s-.539 2.74-1.506 3.749c-.966 1.009-2.285 1.606-3.681 1.666z"/><path d="m304.18 341.32c-1.437 0-2.816-.571-3.833-1.587-1.016-1.017-1.587-2.396-1.587-3.833v-44.28c0-1.437.571-2.816 1.587-3.833 1.017-1.016 2.396-1.587 3.833-1.587s2.816.571 3.833 1.587c1.016 1.017 1.587 2.396 1.587 3.833v44.28c0 1.437-.571 2.816-1.587 3.833-1.017 1.016-2.396 1.587-3.833 1.587z"/><path d="m224.73 411.15h-67.73c-1.437 0-2.816-.571-3.832-1.587-1.017-1.017-1.588-2.396-1.588-3.833v-80.26c0-10.415 4.137-20.404 11.502-27.768 7.365-7.365 17.353-11.502 27.768-11.502s20.404 4.137 27.768 11.502c7.365 7.364 11.502 17.353 11.502 27.768v80.26c0 1.432-.567 2.806-1.577 3.822s-2.381 1.59-3.813 1.598zm-62.29-10.84h56.88v-74.84c0-7.543-2.996-14.777-8.33-20.11-5.333-5.334-12.567-8.33-20.11-8.33s-14.777 2.996-20.11 8.33c-5.334 5.333-8.33 12.567-8.33 20.11z"/><path d="m185.68 355h-10.54c-1.438 0-2.816-.571-3.833-1.587-1.016-1.017-1.587-2.396-1.587-3.833s.571-2.816 1.587-3.833c1.017-1.016 2.395-1.587 3.833-1.587h10.54c1.437 0 2.816.571 3.832 1.587 1.017 1.017 1.588 2.396 1.588 3.833s-.571 2.816-1.588 3.833c-1.016 1.016-2.395 1.587-3.832 1.587z"/></g><path d="m250 182.91c25.803 0 46.72-20.917 46.72-46.72s-20.917-46.72-46.72-46.72-46.72 20.917-46.72 46.72 20.917 46.72 46.72 46.72z" fill="#daa900"/><path d="m219.45 136.25c.29-.24.58-.47.86-.73l7.85-7.35 13.17 14 31.13-28.87 8.09 8.77-39.86 36.94c-.23-.27-.44-.53-.67-.77-6.747-7.22-13.503-14.433-20.27-21.64-.09-.1-.2-.18-.3-.28z" fill="#fff"/></svg>

<svg width="500" height="500" viewBox="0 0 500 500" fill="none" xmlns="http://www.w3.org/2000/svg">
<path d="M224.73 405.73V325.47C224.731 321.024 223.857 316.621 222.156 312.513C220.456 308.405 217.963 304.672 214.819 301.528C211.676 298.384 207.944 295.889 203.836 294.188C199.729 292.486 195.326 291.61 190.88 291.61C186.432 291.607 182.027 292.481 177.916 294.182C173.806 295.882 170.071 298.376 166.924 301.52C163.778 304.665 161.282 308.398 159.579 312.508C157.876 316.617 157 321.022 157 325.47V405.73H224.73Z" fill="#DAA900"/>
<path d="M287.29 273.67C263.68 273.67 244.47 259.11 244.47 241.21C244.53 239.814 245.127 238.495 246.136 237.529C247.145 236.562 248.488 236.023 249.885 236.023C251.282 236.023 252.625 236.562 253.634 237.529C254.643 238.495 255.24 239.814 255.3 241.21C255.3 252.94 269.95 262.84 287.3 262.84C304.65 262.84 319.3 252.94 319.3 241.21C319.36 239.814 319.957 238.495 320.966 237.529C321.975 236.562 323.318 236.023 324.715 236.023C326.112 236.023 327.455 236.562 328.464 237.529C329.473 238.495 330.07 239.814 330.13 241.21C330.11 259.11 310.9 273.67 287.29 273.67Z" fill="white"/>
<path d="M362.09 273.65C338.48 273.65 319.26 259.1 319.26 241.22V220.91C319.259 220.199 319.398 219.494 319.669 218.837C319.94 218.179 320.339 217.581 320.841 217.078C321.344 216.575 321.94 216.175 322.597 215.903C323.254 215.63 323.959 215.49 324.67 215.49H399.74C400.456 215.491 401.166 215.634 401.827 215.911C402.487 216.188 403.087 216.592 403.591 217.102C404.095 217.611 404.493 218.215 404.762 218.879C405.031 219.543 405.167 220.254 405.16 220.97L404.93 241.28C404.93 254.48 394.51 266.28 378.37 271.28C373.09 272.87 367.604 273.669 362.09 273.65ZM330.09 226.32V241.22C330.09 253.13 344.45 262.82 362.09 262.82C366.534 262.823 370.955 262.173 375.21 260.89C386.68 257.35 394.1 249.63 394.1 241.22L394.26 226.32H330.09Z" fill="white"/>
<path d="M212.46 273.66C188.46 273.66 169.68 259.41 169.68 241.22C169.74 239.824 170.337 238.505 171.346 237.539C172.355 236.572 173.698 236.033 175.095 236.033C176.492 236.033 177.835 236.572 178.844 237.539C179.853 238.505 180.45 239.824 180.51 241.22C180.51 253.13 194.85 262.82 212.51 262.82C229.86 262.82 244.51 252.93 244.51 241.22L244.86 220.82C244.933 219.4 245.543 218.061 246.566 217.073C247.589 216.086 248.948 215.523 250.37 215.5C251.806 215.526 253.172 216.121 254.17 217.154C255.167 218.187 255.714 219.574 255.69 221.01L255.34 241.32C255.3 259.11 236.08 273.66 212.46 273.66Z" fill="white"/>
<path d="M137.68 273.65C132.4 273.669 127.145 272.921 122.08 271.43C105.55 266.61 94.8401 254.74 94.8401 241.22V241.12L95.2401 220.8C95.2689 219.382 95.8526 218.031 96.8659 217.038C97.8793 216.046 99.2415 215.49 100.66 215.49H175.1C175.811 215.49 176.516 215.63 177.173 215.903C177.83 216.175 178.427 216.575 178.929 217.078C179.432 217.581 179.83 218.179 180.101 218.837C180.372 219.494 180.511 220.199 180.51 220.91V241.22C180.51 259.1 161.3 273.65 137.68 273.65ZM105.68 241.27C105.68 249.84 113.35 257.59 125.16 261.04C129.23 262.232 133.45 262.832 137.69 262.82C155.34 262.82 169.69 253.13 169.69 241.22V226.32H106L105.68 241.27Z" fill="white"/>
<path d="M376.78 226.31H123.63C122.234 226.25 120.915 225.653 119.949 224.644C118.982 223.635 118.443 222.292 118.443 220.895C118.443 219.498 118.982 218.155 119.949 217.146C120.915 216.137 122.234 215.54 123.63 215.48H376.78C378.176 215.54 379.495 216.137 380.461 217.146C381.428 218.155 381.967 219.498 381.967 220.895C381.967 222.292 381.428 223.635 380.461 224.644C379.495 225.653 378.176 226.25 376.78 226.31Z" fill="black"/>
<path d="M376.78 411.17H123.63C122.92 411.17 122.216 411.03 121.56 410.758C120.903 410.486 120.307 410.088 119.805 409.585C119.302 409.083 118.904 408.487 118.632 407.83C118.36 407.174 118.22 406.47 118.22 405.76V266.26C118.189 265.529 118.305 264.8 118.563 264.115C118.821 263.431 119.215 262.806 119.721 262.278C120.227 261.75 120.835 261.33 121.507 261.042C122.18 260.755 122.904 260.607 123.635 260.607C124.366 260.607 125.09 260.755 125.763 261.042C126.436 261.33 127.043 261.75 127.549 262.278C128.055 262.806 128.449 263.431 128.707 264.115C128.965 264.8 129.081 265.529 129.05 266.26V400.34H371.36V266.09C371.329 265.359 371.445 264.63 371.703 263.945C371.961 263.261 372.355 262.636 372.861 262.108C373.367 261.58 373.975 261.159 374.647 260.872C375.32 260.585 376.044 260.437 376.775 260.437C377.506 260.437 378.23 260.585 378.903 260.872C379.576 261.159 380.183 261.58 380.689 262.108C381.195 262.636 381.589 263.261 381.847 263.945C382.105 264.63 382.222 265.359 382.19 266.09V405.76C382.19 406.47 382.05 407.174 381.778 407.83C381.506 408.487 381.108 409.083 380.606 409.585C380.103 410.088 379.507 410.486 378.85 410.758C378.194 411.03 377.491 411.17 376.78 411.17Z" fill="white"/>
<path d="M399.74 226.32H100.66C99.763 226.326 98.8785 226.109 98.0865 225.688C97.2944 225.267 96.6198 224.655 96.1236 223.907C95.6274 223.16 95.3251 222.301 95.2442 221.407C95.1633 220.514 95.3062 219.614 95.6601 218.79L124 152.23C128.53 141.55 137.79 134.93 148.15 134.93H191.78C193.176 134.99 194.495 135.587 195.461 136.596C196.428 137.605 196.967 138.948 196.967 140.345C196.967 141.742 196.428 143.085 195.461 144.094C194.495 145.103 193.176 145.7 191.78 145.76H148.13C142.19 145.76 136.75 149.86 133.94 156.47L108.85 215.47H391.51L366 156.37C363.18 149.83 357.76 145.76 351.85 145.76H307.3C306.569 145.791 305.84 145.675 305.156 145.417C304.471 145.159 303.846 144.765 303.318 144.259C302.79 143.753 302.37 143.145 302.082 142.473C301.795 141.8 301.647 141.076 301.647 140.345C301.647 139.614 301.795 138.89 302.082 138.217C302.37 137.545 302.79 136.937 303.318 136.431C303.846 135.925 304.471 135.531 305.156 135.273C305.84 135.015 306.569 134.899 307.3 134.93H351.89C362.19 134.93 371.42 141.5 375.98 152.08L404.71 218.77C405.066 219.595 405.21 220.496 405.13 221.392C405.05 222.287 404.748 223.148 404.252 223.897C403.756 224.647 403.081 225.26 402.288 225.683C401.495 226.106 400.609 226.325 399.71 226.32H399.74Z" fill="white"/>
<path d="M249.53 203.52C232.778 203.501 216.718 196.839 204.872 184.995C193.026 173.151 186.361 157.092 186.34 140.34C186.4 138.944 186.997 137.625 188.006 136.659C189.015 135.692 190.358 135.153 191.755 135.153C193.152 135.153 194.495 135.692 195.504 136.659C196.513 137.625 197.11 138.944 197.17 140.34C197.36 154.1 202.96 167.232 212.758 176.895C222.555 186.559 235.764 191.976 249.525 191.976C263.286 191.976 276.495 186.559 286.292 176.895C296.09 167.232 301.69 154.1 301.88 140.34C301.94 138.944 302.537 137.625 303.546 136.659C304.555 135.692 305.898 135.153 307.295 135.153C308.692 135.153 310.035 135.692 311.044 136.659C312.053 137.625 312.65 138.944 312.71 140.34C312.692 157.091 306.029 173.15 294.185 184.995C282.34 196.839 266.281 203.501 249.53 203.52Z" fill="white"/>
<path d="M352.79 385.86H255.58C254.142 385.86 252.764 385.289 251.747 384.273C250.731 383.256 250.16 381.877 250.16 380.44V291.62C250.16 290.183 250.731 288.804 251.747 287.787C252.764 286.771 254.142 286.2 255.58 286.2H352.79C353.501 286.2 354.206 286.34 354.863 286.613C355.52 286.885 356.116 287.285 356.619 287.788C357.121 288.292 357.52 288.889 357.791 289.547C358.062 290.204 358.201 290.909 358.2 291.62V380.44C358.2 381.876 357.63 383.253 356.616 384.269C355.602 385.285 354.226 385.857 352.79 385.86ZM261 375H347.38V297H261V375Z" fill="white"/>
<path d="M352.79 341.44H255.58C254.849 341.471 254.12 341.355 253.435 341.097C252.751 340.839 252.126 340.445 251.598 339.939C251.07 339.433 250.65 338.825 250.362 338.153C250.075 337.48 249.927 336.756 249.927 336.025C249.927 335.294 250.075 334.57 250.362 333.897C250.65 333.225 251.07 332.617 251.598 332.111C252.126 331.605 252.751 331.211 253.435 330.953C254.12 330.695 254.849 330.579 255.58 330.61H352.79C354.186 330.67 355.505 331.267 356.471 332.276C357.438 333.285 357.977 334.628 357.977 336.025C357.977 337.422 357.438 338.765 356.471 339.774C355.505 340.783 354.186 341.38 352.79 341.44Z" fill="white"/>
<path d="M304.18 341.32C302.743 341.32 301.364 340.749 300.347 339.733C299.331 338.716 298.76 337.337 298.76 335.9V291.62C298.76 290.183 299.331 288.804 300.347 287.787C301.364 286.771 302.743 286.2 304.18 286.2C305.617 286.2 306.996 286.771 308.013 287.787C309.029 288.804 309.6 290.183 309.6 291.62V335.9C309.6 337.337 309.029 338.716 308.013 339.733C306.996 340.749 305.617 341.32 304.18 341.32Z" fill="white"/>
<path d="M224.73 411.15H157C155.563 411.15 154.184 410.579 153.168 409.563C152.151 408.546 151.58 407.167 151.58 405.73V325.47C151.58 315.055 155.717 305.066 163.082 297.702C170.447 290.337 180.435 286.2 190.85 286.2C201.265 286.2 211.254 290.337 218.618 297.702C225.983 305.066 230.12 315.055 230.12 325.47V405.73C230.12 407.162 229.553 408.536 228.543 409.552C227.533 410.568 226.162 411.142 224.73 411.15ZM162.44 400.31H219.32V325.47C219.32 317.927 216.324 310.693 210.99 305.36C205.657 300.026 198.423 297.03 190.88 297.03C183.337 297.03 176.103 300.026 170.77 305.36C165.436 310.693 162.44 317.927 162.44 325.47V400.31Z" fill="white"/>
<path d="M185.68 355H175.14C173.702 355 172.324 354.429 171.307 353.413C170.291 352.396 169.72 351.017 169.72 349.58C169.72 348.143 170.291 346.764 171.307 345.747C172.324 344.731 173.702 344.16 175.14 344.16H185.68C187.117 344.16 188.496 344.731 189.512 345.747C190.529 346.764 191.1 348.143 191.1 349.58C191.1 351.017 190.529 352.396 189.512 353.413C188.496 354.429 187.117 355 185.68 355Z" fill="white"/>
<path d="M250 182.91C275.803 182.91 296.72 161.993 296.72 136.19C296.72 110.387 275.803 89.47 250 89.47C224.197 89.47 203.28 110.387 203.28 136.19C203.28 161.993 224.197 182.91 250 182.91Z" fill="#DAA900"/>
<path d="M219.45 136.25C219.74 136.01 220.03 135.78 220.31 135.52L228.16 128.17L241.33 142.17L272.46 113.3L280.55 122.07L240.69 159.01C240.46 158.74 240.25 158.48 240.02 158.24C233.273 151.02 226.517 143.807 219.75 136.6C219.66 136.5 219.55 136.42 219.45 136.32V136.25Z" fill="white"/>
</svg>
